assets/Logo/MB--Logo--CombH-Squircle--Black.svg

<svg height="560" viewBox="0 0 1974 560" width="1974" xmlns="http://www.w3.org/2000/svg"><g fill="none" fill-rule="evenodd"><g transform="translate(30 30)"><rect fill="#000" height="500" rx="50" width="500"/><path d="m430 180v100h-300v.001l-12.907363.000293c13.6612 60.675936 67.877706 105.998707 132.679911 105.998707 53.574191 0 99.91317-30.977625 122.082198-75.998136l58.145254-.000864v83.999c0 19.882251-16.117749 36-36 36h-288c-19.882251 0-36-16.117749-36-36v-214zm-92.673507 130.00167c-19.091757 27.912627-51.183733 46.229933-87.553945 46.229933s-68.462188-18.317306-87.553945-46.229933zm-164.326493-106.00167c-28.211891 0-51.551244 20.861818-55.432937 48.000334l30.686759.000209c3.374064-10.445337 13.177814-18.000543 24.746178-18.000543s21.372114 7.555206 24.746178 18.000543l30.686759-.000209c-3.881693-27.138516-27.221046-48.000334-55.432937-48.000334zm154 0c-28.211891 0-51.551244 20.861818-55.432937 48.000334l30.686759.000209c3.374064-10.445337 13.177814-18.000543 24.746178-18.000543s21.372114 7.555206 24.746178 18.000543l30.686759-.000209c-3.881693-27.138516-27.221046-48.000334-55.432937-48.000334zm67-134c19.882251 0 36 16.117749 36 36v44h-360v-44c0-19.882251 16.117749-36 36-36z" fill="#fff"/></g><path d="m1488.29336 196c54.47752 0 116.35974 21.208577 120.0621 89.076023h-76.16274c-1.58672-19.617933-19.56959-28.631579-43.37045-28.631579-22.21413 0-32.26338 8.483431-32.26338 18.557505 0 8.483431 6.34689 16.436647 26.44539 20.148148l48.13062 7.953217c48.13062 9.013645 79.8651 32.34308 79.8651 77.94152 0 59.384016-53.4197 86.955166-120.0621 86.955166-67.1713 0-121.64882-28.101365-126.9379-96.499025l76.16274.530214c3.70236 22.269006 22.21413 32.34308 49.18844 32.34308 22.74304 0 36.49464-6.892788 36.49464-18.02729 0-8.483431-7.93361-15.376219-24.85867-18.027291l-51.83297-9.013645c-44.42827-7.423002-75.10493-32.34308-75.10493-77.411306 0-54.081872 46.01499-85.894737 114.24411-85.894737zm-321.04896 1c27.98321 0 51.21456 7.41502 70.22202 19.596838v-13.770751h85.53358v256.87747h-85.53358v-14.300395c-19.00746 12.181818-42.23881 19.596838-70.22202 19.596838-69.16604 0-127.2444-57.731225-127.2444-134 0-76.798419 58.07836-134 127.2444-134zm-500.997806-98 128.253406 192.710294 127.723433-192.710294h66.776567v361h-89.565395v-181.030882l-80.025886 123.695588v.530882h-49.817438v-.530882l-80.555859-124.757353.529973 182.092647h-89.565395v-361zm1077.553406-15v215.538028l89.50741-96.383098h102.21852l-97.45186 104.856338 105.92593 151.988732h-102.74815l-61.43704-88.969014-36.01481 38.659155v50.309859h-85.8v-376zm-559.66007 182.913043c-34.84702 0-60.1903 28.600791-60.1903 64.086957s25.34328 63.557312 60.1903 63.557312c19.00746 0 37.48694-5.296442 53.32649-23.833992v-79.44664c-15.83955-18.53755-34.31903-24.363637-53.32649-24.363637z" fill="#000" fill-rule="nonzero"/></g></svg>

<?xml version="1.0" encoding="UTF-8"?>
<svg width="1974px" height="560px" viewBox="0 0 1974 560" version="1.1" xmlns="http://www.w3.org/2000/svg" xmlns:xlink="http://www.w3.org/1999/xlink">
    <title>MB--Logo--CombH-Squircle--Black</title>
    <defs>
        <path d="M430,180 L430,280 L130,280 L130,280.001 L117.092637,280.001293 C130.753837,340.677229 184.970343,386 249.772548,386 C303.346739,386 349.685718,355.022375 371.854746,310.001864 L371.854746,310.001864 L430,310.001 L430,394 C430,413.882251 413.882251,430 394,430 L106,430 C86.117749,430 70,413.882251 70,394 L70,180 L430,180 Z M337.326493,310.00167 C318.234736,337.914297 286.14276,356.231603 249.772548,356.231603 C213.402336,356.231603 181.31036,337.914297 162.218603,310.00167 L162.218603,310.00167 Z M173,204 C144.788109,204 121.448756,224.861818 117.567063,252.000334 L117.567063,252.000334 L148.253822,252.000543 C151.627886,241.555206 161.431636,234 173,234 C184.568364,234 194.372114,241.555206 197.746178,252.000543 L197.746178,252.000543 L228.432937,252.000334 C224.551244,224.861818 201.211891,204 173,204 Z M327,204 C298.788109,204 275.448756,224.861818 271.567063,252.000334 L271.567063,252.000334 L302.253822,252.000543 C305.627886,241.555206 315.431636,234 327,234 C338.568364,234 348.372114,241.555206 351.746178,252.000543 L351.746178,252.000543 L382.432937,252.000334 C378.551244,224.861818 355.211891,204 327,204 Z M394,70 C413.882251,70 430,86.117749 430,106 L430,150 L70,150 L70,106 C70,86.117749 86.117749,70 106,70 L394,70 Z" id="path-1"></path>
    </defs>
    <g id="MB--Logo--CombH-Squircle--Black" stroke="none" stroke-width="1" fill="none" fill-rule="evenodd">
        <g id="Group" transform="translate(30.000000, 30.000000)">
            <rect id="Rectangle" fill="#000000" x="0" y="0" width="500" height="500" rx="50"></rect>
            <mask id="mask-2" fill="white">
                <use xlink:href="#path-1"></use>
            </mask>
            <use id="MB--Bare--White" fill="#FFFFFF" xlink:href="#path-1"></use>
        </g>
        <path d="M1488.29336,196 C1542.77088,196 1604.6531,217.208577 1608.35546,285.076023 L1532.19272,285.076023 C1530.606,265.45809 1512.62313,256.444444 1488.82227,256.444444 C1466.60814,256.444444 1456.55889,264.927875 1456.55889,275.001949 C1456.55889,283.48538 1462.90578,291.438596 1483.00428,295.150097 L1531.1349,303.103314 C1579.26552,312.116959 1611,335.446394 1611,381.044834 C1611,440.42885 1557.5803,468 1490.9379,468 C1423.7666,468 1369.28908,439.898635 1364,371.500975 L1440.16274,372.031189 C1443.8651,394.300195 1462.37687,404.374269 1489.35118,404.374269 C1512.09422,404.374269 1525.84582,397.481481 1525.84582,386.346979 C1525.84582,377.863548 1517.91221,370.97076 1500.98715,368.319688 L1449.15418,359.306043 C1404.72591,351.883041 1374.04925,326.962963 1374.04925,281.894737 C1374.04925,227.812865 1420.06424,196 1488.29336,196 Z M1167.2444,197 C1195.22761,197 1218.45896,204.41502 1237.46642,216.596838 L1237.46642,202.826087 L1323,202.826087 L1323,459.703557 L1237.46642,459.703557 L1237.46642,445.403162 C1218.45896,457.58498 1195.22761,465 1167.2444,465 C1098.07836,465 1040,407.268775 1040,331 C1040,254.201581 1098.07836,197 1167.2444,197 Z M666.246594,99 L794.5,291.710294 L922.223433,99 L989,99 L989,460 L899.434605,460 L899.434605,278.969118 L819.408719,402.664706 L819.408719,403.195588 L769.591281,403.195588 L769.591281,402.664706 L689.035422,277.907353 L689.565395,460 L600,460 L600,99 L666.246594,99 Z M1743.8,84 L1743.8,299.538028 L1833.30741,203.15493 L1935.52593,203.15493 L1838.07407,308.011268 L1944,460 L1841.25185,460 L1779.81481,371.030986 L1743.8,409.690141 L1743.8,460 L1658,460 L1658,84 L1743.8,84 Z M1184.13993,266.913043 C1149.29291,266.913043 1123.94963,295.513834 1123.94963,331 C1123.94963,366.486166 1149.29291,394.557312 1184.13993,394.557312 C1203.14739,394.557312 1221.62687,389.26087 1237.46642,370.72332 L1237.46642,291.27668 C1221.62687,272.73913 1203.14739,266.913043 1184.13993,266.913043 Z" id="形状结合" fill="#000000" fill-rule="nonzero"></path>
    </g>
</svg>
